src/mimetypes/symbolic/text-sql-symbolic.svg

<?xml version="1.0" encoding="UTF-8"?>
<svg width="16px" height="16px" version="1.1" viewBox="0 0 16 16" xmlns="http://www.w3.org/2000/svg">
 <path d="m8 0c-3.866 0-7 1.567-7 3.5v9c0 1.933 3.134 3.5 7 3.5s7-1.567 7-3.5v-9c0-1.933-3.134-3.5-7-3.5zm0 1c3.3137 0 6 1.1193 6 2.5s-2.6863 2.5-6 2.5-6-1.1193-6-2.5 2.6863-2.5 6-2.5zm-6 4.2969c1.2627 1.0553 3.5405 1.7019 6 1.7031 2.4595-0.00124 4.7373-0.6478 6-1.7031v2.6988c0 1.3807-2.6863 2.5-6 2.5s-6-1.1193-6-2.5zm0 4.4898c1.2598 1.0576 3.5381 1.7065 6 1.709 2.4572-9e-6 4.7344-0.64419 6-1.6973v2.7016c0 1.3807-2.6863 2.5-6 2.5s-6-1.1193-6-2.5z" fill="#363636" fill-rule="evenodd" stop-color="#000000"/>
</svg>

<svg xmlns="http://www.w3.org/2000/svg" width="16" height="16">
    <path fill="#050505" fill-opacity=".7" fill-rule="evenodd" d="M8 0C4.134 0 1 1.567 1 3.5v9C1 14.433 4.134 16 8 16s7-1.567 7-3.5v-9C15 1.567 11.866 0 8 0zm0 1c3.314 0 6 1.12 6 2.5S11.314 6 8 6 2 4.88 2 3.5 4.686 1 8 1zM2 5.297C3.263 6.352 5.54 6.999 8 7c2.46-.001 4.737-.648 6-1.703v2.699c0 1.38-2.686 2.5-6 2.5s-6-1.12-6-2.5zm0 4.49c1.26 1.057 3.538 1.706 6 1.709 2.457 0 4.734-.644 6-1.698V12.5c0 1.38-2.686 2.5-6 2.5s-6-1.12-6-2.5z"/>
</svg>
